X:1
T:Title
%%score { ( 1 3 ) | 2 }
L:1/8
M:6/8
K:Eb
V:1 treble nm="Grand Piano"
V:3 treble 
V:2 bass 
V:1
 z3 z2[Q:1/4=78] B, | EEF GG[GB] | [Ac][Ac][GB] [EG]2 [EG] | [DB]>[DF][DF] [DF][EG][FA] | %4
[M:5/8] G3 z2 |[M:1/8] E |[M:3/4] GG [FA][GB] [GB][GB] | [Ac][Ac] [GB] G2 G | FF Bd dB | %9
 cG =A [DB]2 [DB] | [FA][FA] [FA][Ac] [GB][FA] | [EG][EG] [FA][GB] z [EB] | %12
 [Ec][Ec] [Ec][Ge] [Ge][Ec] | dd dd z G | [Ge][Ge] [Ge][Gd] [Gd][Gd] | [Gc][Gc] [Gc][Ac] z c | %16
 BB B c2 B |[M:3/8] [GB]3 |[M:2/4] E G2 c |[M:3/4] B6- | B z z2 z2 | B6- | B z z2 z2 | e6- | %24
 e2 z2 z2 |[M:7/8] B3 [B,EG] [B,DA]2 [A,B,D] |[M:5/8] [G,B,E]-[G,B,E]- [G,B,E]3 |] %27
V:2
 z3 z2 [E,G,] | [E,G,B,][E,G,B,][E,A,D] [E,B,E][E,B,E][E,E] | [A,E][A,E][E,E] [E,B,]2 [E,B,] | %3
 [B,,B,]>[B,,B,][B,,B,] [B,,B,][B,,B,][B,,B,] |[M:5/8] [E,B,E]3 z2 |[M:1/8] [E,G,] | %6
[M:3/4] [E,B,E][E,B,E] [E,D][E,E] [E,E][E,E] | [A,E][A,E] [E,E] [E,B,E]2 [E,B,E] | %8
 [F,B,D][F,B,D] [F,B,D][F,B,F] [F,B,F][F,B,D] | [F,=A,E][F,A,E] [F,CE] [B,,B,]2 [B,,B,] | %10
 [B,,B,][B,,B,] [B,,B,][B,,B,] [C,B,][D,B,] | [E,B,][E,B,] [E,D][E,E] z [E,G,] | %12
 [C,G,][C,C] [C,G,][C,C] [C,C][C,C] | [G,=B,G][G,B,G] [A,C_G][G,B,=G] z G, | %14
 [C,C][C,C] [C,C][D,=B,] [D,B,][D,B,] | [E,C][E,C] [=E,C][F,C] z[K:treble] [=A,E_G] | %16
 [B,EG][B,EG] [B,EG] [B,FA]2 [B,DA] |[M:3/8][K:bass] [E,E]3 |[M:2/4] z4 | %19
[M:3/4] z2 [B,,G,] [B,,A,]2 [B,,G,] | .[B,,F,]2 z2 z2 | z2 [B,,A,] [B,,B,]2 [B,,A,] | %22
 .[E,G,]2 z2 z2 | z2 [E,B,] [E,C]2 [E,_D] | [A,C]2 z c BA |[M:7/8] G3[K:bass] B,, B,,2 B,, | %26
[M:5/8] E,-E,- E,3 |] %27
V:3
 x6 | x6 | x6 | x6 |[M:5/8] x5 |[M:1/8] x |[M:3/4] x6 | x6 | x6 | x6 | x6 | x6 | x6 | x6 | x6 | %15
 x6 | x6 |[M:3/8] x3 |[M:2/4] x4 |[M:3/4] z2 E F2 E | .D2 F A2 c | z2 F G2 F | .E2 E G2 B | %23
 z2 G A2 B | A2 z e dc |[M:7/8] x7 |[M:5/8] x5 |] %27

